; generated by Slic3r 1.2.9 on 2020-09-20 at 08:40:40

; external perimeters extrusion width = 0.40mm
; perimeters extrusion width = 0.68mm
; infill extrusion width = 1.28mm
; solid infill extrusion width = 0.68mm
; top infill extrusion width = 0.68mm
; support material extrusion width = 0.40mm

M190 S60 ; set bed temperature
M104 S200 ; set temperature
G28 ; home all axes
G1 Z5 F5000 ; lift nozzle

M109 S200 ; wait for temperature to be reached
G21 ; set units to millimeters
G90 ; use absolute coordinates
M82 ; use absolute distances for extrusion
G92 E0
M106 S127.5
G1 Z0.200 F1800.000
G1 E-3.00000 F2400.00000
G92 E0
G1 X68.264 Y77.077 F1800.000
G1 E3.00000 F2400.00000
G1 X69.670 Y75.865 E3.03763 F1800.000
G1 X71.234 Y74.764 E3.07638
G1 X72.350 Y74.132 E3.10236
G1 X73.641 Y73.520 E3.13131
G1 X74.632 Y73.137 E3.15284
G1 X75.795 Y72.769 E3.17756
G1 X76.708 Y72.542 E3.19662
G1 X77.786 Y72.336 E3.21887
G1 X78.642 Y72.223 E3.23636
G1 X79.659 Y72.142 E3.25704
G1 X80.735 Y72.117 E3.27884
G1 X99.735 Y72.117 E3.66384
G1 X100.433 Y72.142 E3.67799
G1 X101.204 Y72.197 E3.69365 F1800.000
G1 X102.123 Y72.307 E3.71242
G1 X102.860 Y72.430 E3.72756
G1 X103.739 Y72.620 E3.74578
G1 X104.444 Y72.806 E3.76056
G1 X105.287 Y73.070 E3.77844
G1 X105.962 Y73.316 E3.79301
G1 X106.999 Y73.762 E3.81587
G1 X107.958 Y74.250 E3.83768
G1 X108.584 Y74.593 E3.85216
G1 X109.542 Y75.192 E3.87504
G1 X110.131 Y75.610 E3.88968
G1 X110.832 Y76.157 E3.90770
G1 X111.391 Y76.636 E3.92261
G1 X112.053 Y77.258 E3.94101
G1 X112.579 Y77.801 E3.95635
G1 X113.201 Y78.507 E3.97541
G1 X113.691 Y79.122 E3.99135
G1 X114.266 Y79.921 E4.01128
G1 X114.715 Y80.618 E4.02809
G1 X115.234 Y81.527 E4.04931
G1 X115.634 Y82.323 E4.06736
G1 X116.087 Y83.373 E4.09051
G1 X116.422 Y84.297 E4.11043
G1 X116.782 Y85.535 E4.13657
G1 X117.025 Y86.643 E4.15956
G1 X117.238 Y88.194 E4.19127
G1 X117.318 Y89.627 E4.22036
G1 X117.109 Y92.255 E4.27378
G1 X116.494 Y95.077 E4.33229
G1 X115.683 Y97.373 E4.38164
G1 X115.091 Y98.553 E4.40838
G1 X113.737 Y100.577 E4.45774
G1 X111.845 Y102.758 E4.51624
G1 X109.865 Y104.498 E4.56964
G1 X108.669 Y105.291 E4.59873
G1 X107.298 Y106.049 E4.63047
G1 X106.265 Y106.517 E4.65345
G1 X105.058 Y106.971 E4.67958
G1 X104.117 Y107.255 E4.69950
G1 X103.007 Y107.520 E4.72263
G1 X102.130 Y107.676 E4.74068
G1 X101.090 Y107.804 E4.76191
G1 X100.263 Y107.861 E4.77871
G1 X99.589 Y107.885 E4.79236
G1 X80.589 Y107.885 E5.17736
G1 X79.491 Y107.854 E5.19964
G1 X78.555 Y107.779 E5.21865
G1 X77.805 Y107.683 E5.23398
G1 X76.908 Y107.524 E5.25243
G1 X76.190 Y107.363 E5.26734
G1 X75.335 Y107.129 E5.28531
G1 X74.647 Y106.907 E5.29995
G1 X73.604 Y106.503 E5.32263
G1 X72.953 Y106.207 E5.33711
G1 X71.967 Y105.720 E5.35940
G1 X71.001 Y105.162 E5.38200
G1 X70.400 Y104.768 E5.39657
G1 X69.685 Y104.252 E5.41444
G1 X69.113 Y103.798 E5.42922
G1 X68.435 Y103.206 E5.44747
G1 X67.894 Y102.690 E5.46261
G1 X67.257 Y102.020 E5.48136
G1 X66.751 Y101.435 E5.49703
G1 X66.156 Y100.675 E5.51658
G1 X65.689 Y100.013 E5.53299
G1 X65.146 Y99.151 E5.55364
G1 X64.725 Y98.398 E5.57113
G1 X64.244 Y97.410 E5.59339
G1 X63.880 Y96.543 E5.61245
G1 X63.478 Y95.390 E5.63718
G1 X63.192 Y94.367 E5.65871
G1 X62.910 Y92.967 E5.68765
G1 X62.748 Y91.695 E5.71363
G1 X62.695 Y89.783 E5.75238
G1 X62.824 Y87.930 E5.79002
G1 X63.836 Y84.235 E5.86765
G1 X65.909 Y80.100 E5.96139
G1 X68.227 Y77.125 E6.03781
G1 X68.674 Y77.553 F1800.000
G1 X70.081 Y76.341 E6.07544 F1800.000
G1 X71.544 Y75.311 E6.11169
G1 X72.659 Y74.679 E6.13768
G1 X73.868 Y74.106 E6.16476
G1 X74.859 Y73.723 E6.18629
G1 X75.947 Y73.379 E6.20942
G1 X76.859 Y73.151 E6.22848
G1 X77.869 Y72.959 E6.24930
G1 X78.725 Y72.846 E6.26679
G1 X79.676 Y72.770 E6.28614
G1 X80.735 Y72.745 E6.30759
G1 X99.735 Y72.745 E6.69259
G1 X100.388 Y72.768 E6.70583
G1 X101.159 Y72.823 E6.72150 F1800.000
G1 X102.019 Y72.926 E6.73906
G1 X102.756 Y73.050 E6.75420
G1 X103.578 Y73.227 E6.77124
G1 X104.284 Y73.414 E6.78603
G1 X105.072 Y73.660 E6.80276
G1 X105.748 Y73.906 E6.81733
G1 X106.717 Y74.324 E6.83872
G1 X107.656 Y74.801 E6.86005
G1 X108.282 Y75.144 E6.87453
G1 X109.178 Y75.704 E6.89594
G1 X109.767 Y76.123 E6.91058
G1 X110.423 Y76.634 E6.92745
G1 X110.982 Y77.113 E6.94236
G1 X111.602 Y77.695 E6.95958
G1 X112.128 Y78.238 E6.97491
G1 X112.710 Y78.899 E6.99274
G1 X113.200 Y79.514 E7.00868
G1 X113.737 Y80.262 E7.02733
G1 X114.187 Y80.959 E7.04414
G1 X114.673 Y81.809 E7.06400
G1 X115.073 Y82.605 E7.08205
G1 X115.496 Y83.587 E7.10371
G1 X115.832 Y84.511 E7.12363
G1 X116.168 Y85.670 E7.14809
G1 X116.412 Y86.778 E7.17107
G1 X116.610 Y88.229 E7.20075
G1 X116.691 Y89.663 E7.22984
G1 X116.495 Y92.122 E7.27982
G1 X115.880 Y94.943 E7.33833
G1 X115.121 Y97.091 E7.38451
G1 X114.530 Y98.271 E7.41125
G1 X113.262 Y100.166 E7.45743
G1 X111.370 Y102.346 E7.51593
G1 X109.518 Y103.974 E7.56590
G1 X108.321 Y104.768 E7.59500
G1 X107.039 Y105.477 E7.62469
G1 X106.006 Y105.945 E7.64767
G1 X104.876 Y106.369 E7.67212
G1 X103.935 Y106.653 E7.69204
G1 X102.897 Y106.901 E7.71368
G1 X102.020 Y107.057 E7.73173
G1 X101.047 Y107.177 E7.75159
G1 X99.589 Y107.256 E7.78116
G1 X80.589 Y107.256 E8.16616
G1 X79.511 Y107.226 E8.18803
G1 X78.635 Y107.156 E8.20583
G1 X77.885 Y107.059 E8.22116
G1 X77.046 Y106.911 E8.23842
G1 X76.328 Y106.750 E8.25333
G1 X75.528 Y106.531 E8.27014
G1 X74.840 Y106.309 E8.28478
G1 X73.864 Y105.931 E8.30600
G1 X73.213 Y105.635 E8.32048
G1 X72.249 Y105.158 E8.34227
G1 X71.346 Y104.637 E8.36342
G1 X70.744 Y104.243 E8.37799
G1 X70.076 Y103.759 E8.39470
G1 X69.504 Y103.306 E8.40949
G1 X68.869 Y102.752 E8.42656
G1 X68.329 Y102.236 E8.44170
G1 X67.732 Y101.609 E8.45925
G1 X67.226 Y101.024 E8.47492
G1 X66.670 Y100.313 E8.49321
G1 X66.203 Y99.651 E8.50963
G1 X65.695 Y98.844 E8.52894
G1 X65.274 Y98.091 E8.54643
G1 X64.823 Y97.167 E8.56726
G1 X64.459 Y96.299 E8.58632
G1 X64.083 Y95.221 E8.60946
G1 X63.797 Y94.197 E8.63100
G1 X63.533 Y92.888 E8.65807
G1 X63.372 Y91.616 E8.68405
G1 X63.321 Y89.827 E8.72031
G1 X63.451 Y87.974 E8.75795
G1 X64.398 Y84.517 E8.83058
G1 X66.471 Y80.381 E8.92432
G1 X68.637 Y77.601 E8.99575
G1 X69.084 Y78.029 F1800.000
G1 X70.491 Y76.817 E9.03338 F1800.000
G1 X71.853 Y75.857 E9.06715
G1 X72.969 Y75.225 E9.09313
G1 X74.094 Y74.692 E9.11835
G1 X75.085 Y74.309 E9.13988
G1 X76.098 Y73.988 E9.16142
G1 X77.011 Y73.761 E9.18048
G1 X77.951 Y73.582 E9.19987
G1 X78.807 Y73.469 E9.21736
G1 X79.693 Y73.398 E9.23538
G1 X80.735 Y73.373 E9.25648
G1 X99.735 Y73.373 E9.64149
G1 X100.343 Y73.395 E9.65382
G1 X101.114 Y73.450 E9.66948 F1800.000
G1 X101.915 Y73.546 E9.68584
G1 X102.652 Y73.670 E9.70098
G1 X103.418 Y73.835 E9.71685
G1 X104.123 Y74.021 E9.73163
G1 X104.857 Y74.251 E9.74721
G1 X105.533 Y74.497 E9.76178
G1 X106.436 Y74.885 E9.78170
G1 X107.354 Y75.352 E9.80257
G1 X107.980 Y75.695 E9.81705
G1 X108.814 Y76.217 E9.83698
G1 X109.404 Y76.635 E9.85162
G1 X110.015 Y77.112 E9.86733
G1 X110.574 Y77.590 E9.88224
G1 X111.150 Y78.132 E9.89827
G1 X111.677 Y78.676 E9.91360
G1 X112.218 Y79.291 E9.93021
G1 X112.709 Y79.906 E9.94615
G1 X113.209 Y80.602 E9.96353
G1 X113.659 Y81.299 E9.98033
G1 X114.112 Y82.091 E9.99882
G1 X114.511 Y82.887 E10.01687
G1 X114.905 Y83.802 E10.03705
G1 X115.241 Y84.726 E10.05697
G1 X115.554 Y85.805 E10.07974
G1 X115.798 Y86.913 E10.10273
G1 X115.983 Y88.264 E10.13036
G1 X116.063 Y89.698 E10.15946
G1 X115.881 Y91.988 E10.20601
G1 X115.266 Y94.809 E10.26451
G1 X114.559 Y96.810 E10.30752
G1 X113.968 Y97.990 E10.33426
G1 X112.788 Y99.754 E10.37727
G1 X110.896 Y101.935 E10.43576
G1 X109.171 Y103.450 E10.48230
G1 X107.974 Y104.244 E10.51139
G1 X106.780 Y104.905 E10.53905
G1 X105.747 Y105.373 E10.56203
G1 X104.695 Y105.768 E10.58480
G1 X103.754 Y106.052 E10.60472
G1 X102.787 Y106.283 E10.62487
G1 X101.909 Y106.439 E10.64292
G1 X101.003 Y106.551 E10.66142
G1 X99.589 Y106.628 E10.69011
G1 X80.589 Y106.628 E11.07511
G1 X79.531 Y106.598 E11.09657
G1 X78.716 Y106.533 E11.11315
G1 X77.965 Y106.436 E11.12848
G1 X77.184 Y106.298 E11.14455
G1 X76.466 Y106.137 E11.15946
G1 X75.721 Y105.933 E11.17512
G1 X75.033 Y105.711 E11.18976
G1 X74.124 Y105.359 E11.20952
G1 X73.473 Y105.063 E11.22400
G1 X72.532 Y104.597 E11.24528
G1 X71.690 Y104.111 E11.26498
G1 X71.089 Y103.717 E11.27955
G1 X70.466 Y103.267 E11.29512
G1 X69.895 Y102.814 E11.30990
G1 X69.303 Y102.298 E11.32580
G1 X68.763 Y101.782 E11.34094
G1 X68.207 Y101.198 E11.35728
G1 X67.701 Y100.613 E11.37295
G1 X67.183 Y99.951 E11.38998
G1 X66.716 Y99.288 E11.40640
G1 X66.243 Y98.537 E11.42439
G1 X65.822 Y97.784 E11.44188
G1 X65.402 Y96.924 E11.46128
G1 X65.038 Y96.056 E11.48034
G1 X64.689 Y95.052 E11.50189
G1 X64.403 Y94.028 E11.52342
G1 X64.156 Y92.809 E11.54863
G1 X63.995 Y91.537 E11.57461
G1 X63.948 Y89.871 E11.60838
G1 X64.078 Y88.018 E11.64602
G1 X64.959 Y84.798 E11.71366
G1 X67.032 Y80.663 E11.80740
G1 X69.048 Y78.077 E11.87384
G1 X69.495 Y78.505 F1800.000
G1 X70.901 Y77.292 E11.91147 F1800.000
G1 X72.163 Y76.404 E11.94274
G1 X73.279 Y75.772 E11.96872
G1 X74.321 Y75.278 E11.99209
G1 X75.312 Y74.895 E12.01362
G1 X76.250 Y74.598 E12.03356
G1 X77.163 Y74.371 E12.05262
G1 X78.034 Y74.205 E12.07058
G1 X78.890 Y74.092 E12.08807
G1 X79.711 Y74.026 E12.10476
G1 X80.735 Y74.002 E12.12552
G1 X99.735 Y74.002 E12.51052
G1 X100.298 Y74.022 E12.52194
G1 X101.069 Y74.077 E12.53761 F1800.000
G1 X101.811 Y74.166 E12.55275
G1 X102.548 Y74.289 E12.56789
G1 X103.257 Y74.442 E12.58260
G1 X103.963 Y74.629 E12.59738
G1 X104.642 Y74.841 E12.61181
G1 X105.318 Y75.087 E12.62638
G1 X106.155 Y75.447 E12.64483
G1 X107.052 Y75.903 E12.66522
G1 X107.679 Y76.246 E12.67970
G1 X108.451 Y76.729 E12.69817
G1 X109.040 Y77.147 E12.71281
G1 X109.606 Y77.589 E12.72735
G1 X110.165 Y78.068 E12.74226
G1 X110.699 Y78.570 E12.75712
G1 X111.226 Y79.113 E12.77245
G1 X111.727 Y79.683 E12.78783
G1 X112.218 Y80.298 E12.80377
G1 X112.681 Y80.943 E12.81986
G1 X113.131 Y81.640 E12.83667
G1 X113.550 Y82.373 E12.85379
G1 X113.950 Y83.169 E12.87184
G1 X114.315 Y84.016 E12.89053
G1 X114.651 Y84.940 E12.91045
G1 X114.941 Y85.940 E12.93154
G1 X115.184 Y87.048 E12.95453
G1 X115.356 Y88.299 E12.98012
G1 X115.436 Y89.733 E13.00922
G1 X115.267 Y91.854 E13.05233
G1 X114.652 Y94.675 E13.11084
G1 X113.997 Y96.528 E13.15067
G1 X113.406 Y97.708 E13.17741
G1 X112.313 Y99.342 E13.21724
G1 X110.421 Y101.523 E13.27574
G1 X108.823 Y102.927 E13.31884
G1 X107.627 Y103.720 E13.34794
G1 X106.521 Y104.332 E13.37355
G1 X105.488 Y104.800 E13.39653
G1 X104.513 Y105.166 E13.41762
G1 X103.572 Y105.450 E13.43754
G1 X102.676 Y105.664 E13.45620
G1 X101.799 Y105.820 E13.47426
G1 X100.960 Y105.924 E13.49139
G1 X99.589 Y106.000 E13.51920
G1 X80.589 Y106.000 E13.90420
G1 X79.551 Y105.970 E13.92526
G1 X78.796 Y105.910 E13.94061
G1 X78.045 Y105.813 E13.95594
G1 X77.322 Y105.685 E13.97082
G1 X76.604 Y105.524 E13.98573
G1 X75.914 Y105.335 E14.00024
G1 X75.226 Y105.113 E14.01488
G1 X74.384 Y104.787 E14.03318
G1 X73.733 Y104.491 E14.04766
G1 X72.814 Y104.036 E14.06844
G1 X72.035 Y103.586 E14.08668
G1 X71.433 Y103.192 E14.10125
G1 X70.857 Y102.775 E14.11567
G1 X70.285 Y102.322 E14.13046
G1 X69.737 Y101.844 E14.14518
G1 X69.197 Y101.328 E14.16032
G1 X68.682 Y100.787 E14.17546
G1 X68.177 Y100.202 E14.19112
G1 X67.697 Y99.588 E14.20690
G1 X67.230 Y98.926 E14.22332
G1 X66.792 Y98.231 E14.23998
G1 X66.370 Y97.477 E14.25747
G1 X65.982 Y96.680 E14.27544
G1 X65.618 Y95.813 E14.29450
G1 X65.294 Y94.883 E14.31446
G1 X65.008 Y93.859 E14.33599
G1 X64.780 Y92.730 E14.35934
G1 X64.618 Y91.458 E14.38532
G1 X64.575 Y89.915 E14.41660
G1 X64.705 Y88.062 E14.45423
G1 X65.521 Y85.080 E14.51689
G1 X67.594 Y80.944 E14.61063
G1 X69.458 Y78.552 E14.67207
G1 X69.905 Y78.981 F1800.000
G1 X71.312 Y77.768 E14.70970 F1800.000
G1 X72.473 Y76.951 E14.73848
G1 X73.589 Y76.319 E14.76446
G1 X74.548 Y75.864 E14.78596
G1 X75.539 Y75.481 E14.80749
G1 X76.402 Y75.208 E14.82585
G1 X77.315 Y74.980 E14.84491
G1 X78.116 Y74.828 E14.86144
G1 X78.972 Y74.715 E14.87893
G1 X79.728 Y74.655 E14.89429
G1 X80.735 Y74.630 E14.91470
G1 X99.735 Y74.630 E15.29970
G1 X100.253 Y74.648 E15.31021
G1 X101.024 Y74.704 E15.32588 F1800.000
G1 X101.707 Y74.785 E15.33982
G1 X102.444 Y74.909 E15.35496
G1 X103.097 Y75.050 E15.36849
G1 X103.802 Y75.236 E15.38327
G1 X104.428 Y75.432 E15.39655
G1 X105.103 Y75.678 E15.41112
G1 X105.873 Y76.009 E15.42810
G1 X106.750 Y76.454 E15.44802
G1 X107.377 Y76.797 E15.46250
G1 X108.087 Y77.242 E15.47949
G1 X108.677 Y77.660 E15.49414
G1 X109.198 Y78.066 E15.50752
G1 X109.757 Y78.545 E15.52243
G1 X110.248 Y79.007 E15.53610
G1 X110.775 Y79.550 E15.55143
G1 X111.236 Y80.075 E15.56559
G1 X111.727 Y80.690 E15.58153
G1 X112.153 Y81.283 E15.59634
G1 X112.603 Y81.980 E15.61314
G1 X112.989 Y82.655 E15.62890
G1 X113.388 Y83.451 E15.64695
G1 X113.724 Y84.231 E15.66415
G1 X114.060 Y85.155 E15.68407
G1 X114.327 Y86.075 E15.70349
G1 X114.571 Y87.183 E15.72647
G1 X114.728 Y88.335 E15.75003
G1 X114.809 Y89.768 E15.77912
G1 X114.653 Y91.720 E15.81880
G1 X114.038 Y94.541 E15.87731
G1 X113.436 Y96.247 E15.91396
G1 X112.844 Y97.427 E15.94070
G1 X111.838 Y98.930 E15.97736
G1 X109.947 Y101.111 E16.03586
G1 X108.476 Y102.403 E16.07553
G1 X107.280 Y103.197 E16.10462
G1 X106.262 Y103.760 E16.12819
G1 X105.228 Y104.228 E16.15118
G1 X104.332 Y104.564 E16.17058
G1 X103.391 Y104.848 E16.19051
G1 X102.566 Y105.046 E16.20768
G1 X101.689 Y105.202 E16.22573
G1 X100.917 Y105.297 E16.24150
G1 X99.589 Y105.371 E16.26844
G1 X80.589 Y105.371 E16.65344
G1 X79.571 Y105.342 E16.67408
G1 X78.876 Y105.287 E16.68821
G1 X78.126 Y105.190 E16.70354
G1 X77.460 Y105.072 E16.71724
G1 X76.742 Y104.911 E16.73215
G1 X76.107 Y104.737 E16.74550
G1 X75.419 Y104.515 E16.76014
G1 X74.644 Y104.215 E16.77698
G1 X73.993 Y103.919 E16.79147
G1 X73.097 Y103.475 E16.81174
G1 X72.379 Y103.061 E16.82853
G1 X71.778 Y102.666 E16.84310
G1 X71.247 Y102.283 E16.85637
G1 X70.676 Y101.829 E16.87115
G1 X70.171 Y101.390 E16.88471
G1 X69.631 Y100.874 E16.89985
G1 X69.157 Y100.376 E16.91378
G1 X68.652 Y99.791 E16.92944
G1 X68.210 Y99.226 E16.94396
G1 X67.743 Y98.564 E16.96038
G1 X67.340 Y97.924 E16.97571
G1 X66.919 Y97.171 E16.99320
G1 X66.561 Y96.437 E17.00974
G1 X66.197 Y95.570 E17.02880
G1 X65.899 Y94.714 E17.04717
G1 X65.613 Y93.690 E17.06870
G1 X65.403 Y92.651 E17.09019
G1 X65.242 Y91.379 E17.11617
G1 X65.202 Y89.959 E17.14496
G1 X65.331 Y88.106 E17.18259
G1 X66.083 Y85.361 E17.24025
G1 X68.156 Y81.226 E17.33399
G1 X69.868 Y79.028 E17.39044
G1 X70.315 Y79.457 F1800.000
G1 X71.722 Y78.244 E17.42807 F1800.000
G1 X72.783 Y77.497 E17.45436
G1 X73.898 Y76.865 E17.48034
G1 X74.774 Y76.451 E17.49998
G1 X75.765 Y76.067 E17.52151
G1 X76.554 Y75.817 E17.53828
G1 X77.467 Y75.590 E17.55734
G1 X78.199 Y75.451 E17.57244
G1 X79.055 Y75.338 E17.58993
G1 X79.745 Y75.283 E17.60396
G1 X80.735 Y75.258 E17.62402
G1 X99.735 Y75.258 E18.00902
G1 X100.208 Y75.275 E18.01862
G1 X100.979 Y75.330 E18.03429 F1800.000
G1 X101.603 Y75.405 E18.04702
G1 X102.340 Y75.529 E18.06216
G1 X102.936 Y75.657 E18.07452
G1 X103.642 Y75.844 E18.08930
G1 X104.213 Y76.022 E18.10144
G1 X104.889 Y76.268 E18.11601
G1 X105.592 Y76.571 E18.13152
G1 X106.448 Y77.005 E18.15096
G1 X107.075 Y77.348 E18.16544
G1 X107.724 Y77.754 E18.18097
G1 X108.313 Y78.172 E18.19561
G1 X108.789 Y78.544 E18.20783
G1 X109.348 Y79.022 E18.22274
G1 X109.797 Y79.444 E18.23523
G1 X110.323 Y79.987 E18.25056
G1 X110.745 Y80.467 E18.26349
G1 X111.236 Y81.081 E18.27943
G1 X111.625 Y81.624 E18.29296
G1 X112.075 Y82.321 E18.30976
G1 X112.427 Y82.937 E18.32416
G1 X112.827 Y83.733 E18.34221
G1 X113.134 Y84.445 E18.35792
G1 X113.470 Y85.369 E18.37784
G1 X113.713 Y86.210 E18.39557
G1 X113.957 Y87.318 E18.41856
G1 X114.101 Y88.370 E18.44007
G1 X114.181 Y89.803 E18.46917
G1 X114.040 Y91.586 E18.50541
G1 X113.424 Y94.407 E18.56392
G1 X112.874 Y95.965 E18.59740
G1 X112.283 Y97.145 E18.62414
G1 X111.364 Y98.519 E18.65763
G1 X109.472 Y100.699 E18.71612
G1 X108.129 Y101.880 E18.75235
G1 X106.932 Y102.673 E18.78145
G1 X106.003 Y103.188 E18.80298
G1 X104.969 Y103.655 E18.82596
G1 X104.150 Y103.963 E18.84369
G1 X103.209 Y104.247 E18.86361
G1 X102.456 Y104.427 E18.87930
G1 X101.579 Y104.583 E18.89735
