; generated by Slic3r 1.2.9 on 2020-09-19 at 21:46:07

; external perimeters extrusion width = 0.40mm
; perimeters extrusion width = 0.67mm
; infill extrusion width = 0.67mm
; solid infill extrusion width = 0.67mm
; top infill extrusion width = 0.67mm
; support material extrusion width = 0.40mm

M190 S60 ; set bed temperature
M104 S200 ; set temperature
G28 ; home all axes
G1 Z5 F5000 ; lift nozzle

M109 S200 ; wait for temperature to be reached
G21 ; set units to millimeters
G90 ; use absolute coordinates
M82 ; use absolute distances for extrusion
G92 E0
M106 S168.3
G1 Z0.200 F1800.000
G1 E-3.00000 F2400.00000
G92 E0
G1 X69.667 Y77.862 F1800.000
G1 E3.00000 F2400.00000
G1 X70.428 Y77.224 E3.02013 F1800.000
G1 X70.995 Y76.797 E3.03451
G1 X71.580 Y76.395 E3.04889
G1 X72.554 Y75.803 E3.07199
G1 X73.176 Y75.473 E3.08626
G1 X73.818 Y75.167 E3.10067
G1 X74.736 Y74.786 E3.12080
G1 X75.812 Y74.421 E3.14382
G1 X76.495 Y74.232 E3.15820
G1 X77.187 Y74.072 E3.17257
G1 X78.165 Y73.899 E3.19272
G1 X79.293 Y73.776 E3.21570
G1 X80.500 Y73.730 E3.24018
G1 X99.709 Y73.732 E3.62942
G1 X100.422 Y73.757 E3.64386 F1800.000
G1 X101.129 Y73.813 E3.65824
G1 X101.835 Y73.899 E3.67264
G1 X102.537 Y74.017 E3.68706
G1 X103.505 Y74.232 E3.70716
G1 X104.188 Y74.421 E3.72154
G1 X104.864 Y74.641 E3.73592
G1 X105.528 Y74.889 E3.75030
G1 X106.182 Y75.166 E3.76469
G1 X106.822 Y75.472 E3.77907
G1 X107.449 Y75.805 E3.79345
G1 X108.061 Y76.166 E3.80784
G1 X108.656 Y76.552 E3.82222
G1 X109.234 Y76.964 E3.83660
G1 X110.120 Y77.675 E3.85961
G1 X110.647 Y78.150 E3.87400
G1 X111.154 Y78.648 E3.88839
G1 X111.638 Y79.167 E3.90277
G1 X112.099 Y79.707 E3.91715
G1 X112.536 Y80.266 E3.93154
G1 X112.948 Y80.844 E3.94592
G1 X113.334 Y81.438 E3.96028
G1 X113.696 Y82.053 E3.97475
G1 X114.153 Y82.932 E3.99481
G1 X114.448 Y83.578 E4.00920
G1 X114.714 Y84.236 E4.02358
G1 X114.951 Y84.905 E4.03796
G1 X115.268 Y85.995 E4.06097
G1 X115.428 Y86.687 E4.07536
G1 X115.557 Y87.385 E4.08974
G1 X115.656 Y88.088 E4.10413
G1 X115.724 Y88.795 E4.11851
G1 X115.761 Y89.503 E4.13289
G1 X115.768 Y90.212 E4.14725
G1 X115.743 Y90.922 E4.16166
G1 X115.687 Y91.630 E4.17604
G1 X115.601 Y92.334 E4.19042
G1 X115.483 Y93.038 E4.20487
G1 X115.268 Y94.004 E4.22494
G1 X115.079 Y94.689 E4.23932
G1 X114.859 Y95.364 E4.25370
G1 X114.611 Y96.028 E4.26808
G1 X114.334 Y96.682 E4.28247
G1 X113.831 Y97.701 E4.30548
G1 X113.482 Y98.318 E4.31987
G1 X113.106 Y98.920 E4.33425
G1 X112.703 Y99.505 E4.34863
G1 X112.101 Y100.290 E4.36869
G1 X111.638 Y100.833 E4.38314
G1 X111.154 Y101.352 E4.39753
G1 X110.647 Y101.850 E4.41191
G1 X110.120 Y102.325 E4.42630
G1 X109.234 Y103.036 E4.44931
G1 X108.656 Y103.448 E4.46369
G1 X108.061 Y103.834 E4.47808
G1 X107.449 Y104.195 E4.49246
G1 X106.822 Y104.528 E4.50684
G1 X106.182 Y104.834 E4.52123
G1 X105.529 Y105.111 E4.53560
G1 X104.595 Y105.451 E4.55574
G1 X103.914 Y105.659 E4.57016
G1 X103.228 Y105.836 E4.58453
G1 X102.535 Y105.983 E4.59889
G1 X101.832 Y106.101 E4.61332
G1 X100.706 Y106.224 E4.63629
G1 X99.500 Y106.270 E4.66073
G1 X80.500 Y106.270 E5.04573
G1 X79.577 Y106.243 E5.06443
G1 X78.588 Y106.156 E5.08456
G1 X77.466 Y105.984 E5.10756
G1 X76.772 Y105.836 E5.12193
G1 X76.084 Y105.658 E5.13634
G1 X75.136 Y105.359 E5.15647
G1 X74.078 Y104.948 E5.17949
G1 X73.178 Y104.528 E5.19962
G1 X72.551 Y104.195 E5.21400
G1 X71.939 Y103.834 E5.22838
G1 X70.995 Y103.203 E5.25140
G1 X70.428 Y102.776 E5.26578
G1 X69.881 Y102.325 E5.28015
G1 X69.353 Y101.850 E5.29455
G1 X68.846 Y101.352 E5.30893
G1 X68.362 Y100.833 E5.32331
G1 X67.724 Y100.072 E5.34344
G1 X67.297 Y99.505 E5.35783
G1 X66.666 Y98.561 E5.38084
G1 X66.304 Y97.947 E5.39527
G1 X65.847 Y97.068 E5.41535
G1 X65.552 Y96.422 E5.42974
G1 X65.141 Y95.366 E5.45270
G1 X64.921 Y94.689 E5.46712
G1 X64.664 Y93.729 E5.48726
G1 X64.443 Y92.617 E5.51023
G1 X64.344 Y91.912 E5.52466
G1 X64.276 Y91.207 E5.53901
G1 X64.232 Y90.213 E5.55917
G1 X64.257 Y89.078 E5.58218
G1 X64.313 Y88.370 E5.59657
G1 X64.399 Y87.665 E5.61096
G1 X64.517 Y86.962 E5.62542
G1 X64.732 Y85.996 E5.64547
G1 X64.921 Y85.311 E5.65985
G1 X65.285 Y84.238 E5.68282
G1 X65.552 Y83.578 E5.69725
G1 X65.848 Y82.929 E5.71170
G1 X66.305 Y82.051 E5.73176
G1 X66.666 Y81.439 E5.74615
G1 X67.297 Y80.495 E5.76916
G1 X67.724 Y79.928 E5.78355
G1 X68.362 Y79.167 E5.80367
G1 X68.846 Y78.648 E5.81806
G1 X69.623 Y77.903 E5.83986
G1 X70.047 Y78.366 F1800.000
G1 X70.821 Y77.714 E5.86037 F1800.000
G1 X71.693 Y77.075 E5.88226
G1 X72.265 Y76.703 E5.89610
G1 X72.851 Y76.358 E5.90987
G1 X73.710 Y75.910 E5.92950
G1 X74.702 Y75.474 E5.95146
G1 X75.338 Y75.236 E5.96523
G1 X75.987 Y75.024 E5.97906
G1 X76.645 Y74.842 E5.99289
G1 X77.309 Y74.688 E6.00671
G1 X78.261 Y74.520 E6.02629
G1 X79.334 Y74.403 E6.04816
G1 X80.500 Y74.358 E6.07181
G1 X99.696 Y74.361 E6.46078
G1 X100.381 Y74.384 E6.47466 F1800.000
G1 X101.061 Y74.437 E6.48848
G1 X101.739 Y74.520 E6.50233
G1 X102.410 Y74.632 E6.51612
G1 X103.080 Y74.774 E6.52999
G1 X103.742 Y74.946 E6.54385
G1 X104.662 Y75.236 E6.56339
G1 X105.301 Y75.475 E6.57721
G1 X105.929 Y75.742 E6.59104
G1 X106.545 Y76.036 E6.60487
G1 X107.491 Y76.555 E6.62674
G1 X108.071 Y76.917 E6.64060
G1 X108.634 Y77.303 E6.65443
G1 X109.179 Y77.714 E6.66826
G1 X109.705 Y78.148 E6.68208
G1 X110.213 Y78.604 E6.69591
G1 X110.700 Y79.082 E6.70974
G1 X111.165 Y79.581 E6.72357
G1 X111.609 Y80.100 E6.73740
G1 X112.029 Y80.638 E6.75122
G1 X112.425 Y81.193 E6.76505
G1 X112.799 Y81.768 E6.77896
G1 X113.280 Y82.602 E6.79845
G1 X113.590 Y83.210 E6.81228
G1 X113.873 Y83.831 E6.82611
G1 X114.128 Y84.464 E6.83993
G1 X114.356 Y85.107 E6.85376
G1 X114.658 Y86.144 E6.87566
G1 X114.812 Y86.810 E6.88949
G1 X114.936 Y87.481 E6.90332
G1 X115.032 Y88.156 E6.91715
G1 X115.097 Y88.836 E6.93098
G1 X115.133 Y89.517 E6.94481
G1 X115.139 Y90.198 E6.95861
G1 X115.116 Y90.881 E6.97246
G1 X115.063 Y91.562 E6.98629
G1 X114.979 Y92.242 E7.00018
G1 X114.812 Y93.190 E7.01969
G1 X114.658 Y93.855 E7.03351
G1 X114.476 Y94.513 E7.04734
G1 X114.264 Y95.162 E7.06117
G1 X114.025 Y95.801 E7.07500
G1 X113.758 Y96.429 E7.08883
G1 X113.280 Y97.398 E7.11073
G1 X112.944 Y97.992 E7.12456
G1 X112.583 Y98.571 E7.13838
G1 X112.197 Y99.134 E7.15221
G1 X111.611 Y99.898 E7.17172
G1 X111.165 Y100.419 E7.18561
G1 X110.700 Y100.918 E7.19944
G1 X110.213 Y101.396 E7.21327
G1 X109.705 Y101.852 E7.22710
G1 X108.862 Y102.529 E7.24900
G1 X108.307 Y102.925 E7.26283
G1 X107.735 Y103.297 E7.27666
G1 X107.147 Y103.644 E7.29049
G1 X106.545 Y103.964 E7.30431
G1 X105.929 Y104.258 E7.31814
G1 X105.297 Y104.527 E7.33205
G1 X104.393 Y104.856 E7.35154
G1 X103.739 Y105.055 E7.36540
G1 X103.078 Y105.226 E7.37922
G1 X102.412 Y105.367 E7.39302
G1 X101.737 Y105.480 E7.40690
G1 X100.664 Y105.597 E7.42876
G1 X99.500 Y105.642 E7.45237
G1 X80.500 Y105.642 E7.83737
G1 X79.619 Y105.616 E7.85524
G1 X78.656 Y105.532 E7.87481
G1 X77.589 Y105.367 E7.89670
G1 X76.922 Y105.226 E7.91052
G1 X76.260 Y105.055 E7.92437
G1 X75.338 Y104.764 E7.94394
G1 X74.331 Y104.373 E7.96585
G1 X73.710 Y104.090 E7.97968
G1 X73.102 Y103.780 E7.99351
G1 X72.265 Y103.297 E8.01308
G1 X71.366 Y102.697 E8.03498
G1 X70.821 Y102.286 E8.04881
G1 X70.295 Y101.853 E8.06263
G1 X69.787 Y101.396 E8.07647
G1 X69.300 Y100.918 E8.09029
G1 X68.835 Y100.419 E8.10412
G1 X68.214 Y99.679 E8.12369
G1 X67.803 Y99.134 E8.13752
G1 X67.203 Y98.235 E8.15943
G1 X66.854 Y97.644 E8.17333
G1 X66.410 Y96.790 E8.19283
G1 X66.127 Y96.169 E8.20666
G1 X65.736 Y95.164 E8.22851
G1 X65.523 Y94.509 E8.24246
G1 X65.274 Y93.580 E8.26196
G1 X65.064 Y92.522 E8.28382
G1 X64.968 Y91.844 E8.29770
G1 X64.903 Y91.166 E8.31149
G1 X64.861 Y90.199 E8.33110
G1 X64.867 Y89.517 E8.34492
G1 X64.903 Y88.836 E8.35875
G1 X64.968 Y88.156 E8.37258
G1 X65.132 Y87.090 E8.39445
G1 X65.274 Y86.420 E8.40831
G1 X65.524 Y85.487 E8.42788
G1 X65.871 Y84.466 E8.44974
G1 X66.127 Y83.831 E8.46362
G1 X66.412 Y83.207 E8.47751
G1 X66.856 Y82.353 E8.49702
G1 X67.203 Y81.765 E8.51085
G1 X67.803 Y80.866 E8.53275
G1 X68.214 Y80.321 E8.54658
G1 X68.835 Y79.581 E8.56615
G1 X69.300 Y79.082 E8.57998
G1 X70.003 Y78.406 E8.59973
G1 X70.427 Y78.870 F1800.000
G1 X71.214 Y78.204 E8.62062 F1800.000
G1 X72.042 Y77.597 E8.64141
G1 X72.591 Y77.240 E8.65469
G1 X73.153 Y76.908 E8.66791
G1 X73.988 Y76.474 E8.68698
G1 X74.926 Y76.061 E8.70775
G1 X75.540 Y75.831 E8.72104
G1 X76.163 Y75.628 E8.73432
G1 X76.794 Y75.452 E8.74759
G1 X77.432 Y75.304 E8.76085
G1 X78.357 Y75.141 E8.77988
G1 X79.375 Y75.030 E8.80065
G1 X80.500 Y74.987 E8.82346
G1 X99.682 Y74.989 E9.21215
G1 X100.340 Y75.011 E9.22548 F1800.000
G1 X100.992 Y75.062 E9.23874
G1 X101.643 Y75.141 E9.25203
G1 X102.292 Y75.249 E9.26535
G1 X103.206 Y75.452 E9.28432
G1 X103.837 Y75.628 E9.29760
G1 X104.460 Y75.831 E9.31087
G1 X105.073 Y76.060 E9.32414
G1 X105.676 Y76.317 E9.33741
G1 X106.267 Y76.599 E9.35068
G1 X106.845 Y76.907 E9.36396
G1 X107.409 Y77.240 E9.37723
G1 X107.958 Y77.597 E9.39050
G1 X108.491 Y77.978 E9.40377
G1 X109.291 Y78.620 E9.42456
G1 X109.778 Y79.058 E9.43784
G1 X110.246 Y79.517 E9.45111
G1 X110.693 Y79.995 E9.46439
G1 X111.119 Y80.493 E9.47766
G1 X111.522 Y81.009 E9.49093
G1 X111.903 Y81.542 E9.50420
G1 X112.407 Y82.334 E9.52322
G1 X112.729 Y82.904 E9.53649
G1 X113.026 Y83.488 E9.54976
G1 X113.298 Y84.084 E9.56303
G1 X113.542 Y84.691 E9.57631
G1 X113.761 Y85.309 E9.58958
G1 X114.048 Y86.294 E9.61036
G1 X114.196 Y86.932 E9.62365
G1 X114.315 Y87.576 E9.63692
G1 X114.407 Y88.225 E9.65019
G1 X114.470 Y88.877 E9.66346
G1 X114.505 Y89.531 E9.67673
G1 X114.511 Y90.185 E9.68999
G1 X114.489 Y90.840 E9.70328
G1 X114.438 Y91.493 E9.71655
G1 X114.359 Y92.143 E9.72982
G1 X114.251 Y92.789 E9.74308
G1 X114.115 Y93.430 E9.75637
G1 X113.872 Y94.337 E9.77538
G1 X113.669 Y94.960 E9.78866
G1 X113.440 Y95.573 E9.80193
G1 X113.183 Y96.176 E9.81520
G1 X112.729 Y97.096 E9.83600
G1 X112.407 Y97.666 E9.84927
G1 X112.061 Y98.222 E9.86254
G1 X111.690 Y98.762 E9.87581
G1 X111.121 Y99.504 E9.89475
G1 X110.693 Y100.005 E9.90810
G1 X110.246 Y100.483 E9.92137
G1 X109.778 Y100.942 E9.93465
G1 X109.291 Y101.380 E9.94792
G1 X108.491 Y102.022 E9.96871
G1 X107.958 Y102.403 E9.98199
G1 X107.409 Y102.760 E9.99526
G1 X106.845 Y103.093 E10.00853
G1 X106.267 Y103.401 E10.02180
G1 X105.676 Y103.683 E10.03507
G1 X105.069 Y103.941 E10.04842
G1 X104.191 Y104.261 E10.06736
G1 X103.563 Y104.452 E10.08067
G1 X102.929 Y104.616 E10.09393
G1 X102.290 Y104.751 E10.10718
G1 X101.641 Y104.859 E10.12050
G1 X100.623 Y104.970 E10.14125
G1 X99.500 Y105.013 E10.16403
G1 X80.500 Y105.013 E10.54903
G1 X79.660 Y104.989 E10.56606
G1 X79.007 Y104.938 E10.57933
G1 X78.076 Y104.815 E10.59835
G1 X77.067 Y104.615 E10.61920
G1 X76.436 Y104.452 E10.63242
G1 X75.810 Y104.261 E10.64566
G1 X74.927 Y103.940 E10.66471
G1 X74.324 Y103.683 E10.67798
G1 X73.733 Y103.401 E10.69125
G1 X72.833 Y102.907 E10.71205
G1 X72.042 Y102.403 E10.73106
G1 X71.509 Y102.022 E10.74433
G1 X70.993 Y101.619 E10.75761
G1 X70.495 Y101.193 E10.77088
G1 X69.754 Y100.483 E10.79167
G1 X69.307 Y100.005 E10.80495
G1 X68.704 Y99.286 E10.82396
G1 X68.310 Y98.762 E10.83724
G1 X67.740 Y97.909 E10.85803
G1 X67.408 Y97.346 E10.87127
G1 X67.097 Y96.763 E10.88465
G1 X66.702 Y95.916 E10.90359
G1 X66.458 Y95.309 E10.91686
G1 X66.128 Y94.337 E10.93765
G1 X65.952 Y93.706 E10.95092
G1 X65.804 Y93.064 E10.96428
G1 X65.641 Y92.143 E10.98322
G1 X65.530 Y91.125 E11.00399
G1 X65.495 Y90.470 E11.01727
G1 X65.489 Y89.810 E11.03064
G1 X65.530 Y88.877 E11.04958
G1 X65.593 Y88.225 E11.06285
G1 X65.749 Y87.212 E11.08361
G1 X65.885 Y86.570 E11.09692
G1 X66.128 Y85.663 E11.11593
G1 X66.457 Y84.693 E11.13669
G1 X66.702 Y84.084 E11.15000
G1 X66.973 Y83.488 E11.16326
G1 X67.407 Y82.655 E11.18229
G1 X67.740 Y82.091 E11.19556
G1 X68.310 Y81.238 E11.21636
G1 X68.704 Y80.714 E11.22963
G1 X69.307 Y79.995 E11.24865
G1 X69.754 Y79.517 E11.26192
G1 X70.383 Y78.910 E11.27963
G1 X70.807 Y79.373 F1800.000
G1 X71.608 Y78.694 E11.30090 F1800.000
G1 X72.109 Y78.317 E11.31361
G1 X72.627 Y77.962 E11.32633
G1 X73.459 Y77.457 E11.34604
G1 X74.010 Y77.163 E11.35870
G1 X74.577 Y76.892 E11.37144
G1 X75.154 Y76.646 E11.38414
G1 X75.742 Y76.426 E11.39688
G1 X76.611 Y76.152 E11.41534
G1 X77.219 Y75.995 E11.42806
G1 X77.833 Y75.865 E11.44078
G1 X78.793 Y75.718 E11.46046
G1 X79.701 Y75.638 E11.47892
G1 X80.500 Y75.615 E11.49512
G1 X99.669 Y75.617 E11.88355
G1 X100.299 Y75.638 E11.89631 F1800.000
G1 X100.924 Y75.687 E11.90902
G1 X101.548 Y75.762 E11.92176
G1 X102.165 Y75.865 E11.93445
G1 X102.781 Y75.995 E11.94719
G1 X103.387 Y76.151 E11.95988
G1 X103.990 Y76.335 E11.97265
G1 X104.845 Y76.646 E11.99109
G1 X105.423 Y76.892 E12.00380
G1 X105.989 Y77.163 E12.01652
G1 X106.543 Y77.458 E12.02924
G1 X107.083 Y77.777 E12.04195
G1 X107.609 Y78.119 E12.05467
G1 X108.392 Y78.694 E12.07436
G1 X108.877 Y79.092 E12.08707
G1 X109.344 Y79.512 E12.09979
G1 X109.792 Y79.951 E12.11251
G1 X110.221 Y80.410 E12.12522
G1 X110.806 Y81.108 E12.14368
G1 X111.183 Y81.609 E12.15640
G1 X111.538 Y82.127 E12.16912
G1 X111.870 Y82.659 E12.18183
G1 X112.179 Y83.206 E12.19455
G1 X112.608 Y84.076 E12.21421
G1 X112.854 Y84.654 E12.22694
G1 X113.075 Y85.242 E12.23967
G1 X113.269 Y85.839 E12.25239
G1 X113.438 Y86.447 E12.26517
G1 X113.635 Y87.333 E12.28356
G1 X113.738 Y87.952 E12.29628
G1 X113.813 Y88.575 E12.30900
G1 X113.862 Y89.201 E12.32171
G1 X113.883 Y89.828 E12.33443
G1 X113.877 Y90.456 E12.34715
G1 X113.843 Y91.082 E12.35986
G1 X113.738 Y92.048 E12.37954
G1 X113.635 Y92.666 E12.39225
G1 X113.505 Y93.281 E12.40498
G1 X113.348 Y93.889 E12.41770
G1 X113.166 Y94.489 E12.43042
G1 X112.957 Y95.081 E12.44313
G1 X112.722 Y95.663 E12.45585
G1 X112.463 Y96.234 E12.46857
G1 X112.044 Y97.039 E12.48695
G1 X111.722 Y97.584 E12.49976
G1 X111.381 Y98.109 E12.51246
G1 X111.015 Y98.620 E12.52519
G1 X110.628 Y99.114 E12.53791
G1 X109.988 Y99.844 E12.55758
G1 X109.549 Y100.292 E12.57030
G1 X109.090 Y100.721 E12.58301
G1 X108.613 Y101.129 E12.59573
G1 X108.119 Y101.516 E12.60844
G1 X107.609 Y101.881 E12.62116
G1 X106.841 Y102.370 E12.63962
G1 X106.294 Y102.679 E12.65234
G1 X105.734 Y102.963 E12.66506
G1 X105.162 Y103.223 E12.67779
G1 X104.258 Y103.574 E12.69746
G1 X103.661 Y103.769 E12.71017
G1 X103.056 Y103.938 E12.72289
G1 X102.445 Y104.079 E12.73561
G1 X101.828 Y104.194 E12.74833
G1 X101.207 Y104.282 E12.76104
G1 X100.299 Y104.362 E12.77950
G1 X99.500 Y104.385 E12.79570
G1 X80.500 Y104.385 E13.18070
G1 X79.701 Y104.362 E13.19691
G1 X79.075 Y104.313 E13.20962
G1 X78.452 Y104.238 E13.22233
G1 X77.834 Y104.135 E13.23504
G1 X76.944 Y103.938 E13.25352
G1 X76.008 Y103.665 E13.27326
G1 X75.420 Y103.457 E13.28590
G1 X74.837 Y103.222 E13.29864
G1 X74.011 Y102.837 E13.31710
G1 X73.159 Y102.370 E13.33678
G1 X72.627 Y102.038 E13.34950
G1 X72.109 Y101.683 E13.36221
G1 X71.387 Y101.129 E13.38068
G1 X70.910 Y100.721 E13.39339
G1 X70.208 Y100.049 E13.41308
G1 X69.779 Y99.590 E13.42579
G1 X69.194 Y98.892 E13.44426
G1 X68.817 Y98.391 E13.45697
G1 X68.277 Y97.583 E13.47666
G1 X67.959 Y97.044 E13.48935
G1 X67.662 Y96.487 E13.50212
G1 X67.278 Y95.663 E13.52055
G1 X67.043 Y95.081 E13.53327
G1 X66.731 Y94.161 E13.55294
G1 X66.563 Y93.557 E13.56566
G1 X66.420 Y92.944 E13.57841
G1 X66.262 Y92.048 E13.59685
G1 X66.157 Y91.084 E13.61651
G1 X66.123 Y90.457 E13.62923
G1 X66.117 Y89.824 E13.64204
G1 X66.157 Y88.918 E13.66043
G1 X66.218 Y88.293 E13.67314
G1 X66.365 Y87.335 E13.69280
G1 X66.495 Y86.719 E13.70555
G1 X66.731 Y85.839 E13.72401
G1 X67.042 Y84.921 E13.74365
G1 X67.278 Y84.337 E13.75641
G1 X67.537 Y83.766 E13.76912
G1 X67.958 Y82.957 E13.78759
G1 X68.277 Y82.417 E13.80030
G1 X68.817 Y81.609 E13.81999
G1 X69.194 Y81.108 E13.83271
G1 X69.779 Y80.410 E13.85117
G1 X70.208 Y79.951 E13.86388
G1 X70.763 Y79.414 E13.87954
G1 X71.188 Y79.877 F1800.000
G1 X72.001 Y79.184 E13.90119 F1800.000
G1 X72.481 Y78.823 E13.91336
G1 X72.976 Y78.484 E13.92552
G1 X73.763 Y78.007 E13.94417
G1 X74.288 Y77.727 E13.95623
G1 X74.830 Y77.467 E13.96841
G1 X75.381 Y77.232 E13.98055
G1 X75.944 Y77.021 E13.99273
G1 X76.787 Y76.755 E14.01064
G1 X77.677 Y76.537 E14.02921
G1 X78.267 Y76.427 E14.04138
G1 X78.862 Y76.342 E14.05354
G1 X79.742 Y76.265 E14.07144
