; generated by Slic3r 1.2.9 on 2020-09-19 at 10:03:27

; external perimeters extrusion width = 0.40mm
; perimeters extrusion width = 0.67mm
; infill extrusion width = 0.67mm
; solid infill extrusion width = 0.67mm
; top infill extrusion width = 0.67mm

M190 S60 ; set bed temperature
M104 S200 ; set temperature
G28 ; home all axes
G1 Z5 F5000 ; lift nozzle

M109 S200 ; wait for temperature to be reached
G21 ; set units to millimeters
G90 ; use absolute coordinates
M82 ; use absolute distances for extrusion
G92 E0
G1 Z0.200 F1800.000
G1 E-3.00000 F2400.00000
G92 E0
G1 X40.107 Y47.974 F1800.000
G1 E3.00000 F2400.00000
G1 X40.618 Y47.575 E3.01314 F1800.000
G1 X41.147 Y47.199 E3.02629
G1 X41.691 Y46.846 E3.03943
G1 X42.251 Y46.518 E3.05258
G1 X43.024 Y46.115 E3.07023
G1 X43.614 Y45.846 E3.08338
G1 X44.215 Y45.602 E3.09653
G1 X44.826 Y45.385 E3.10967
G1 X45.421 Y45.201 E3.12229
G1 X46.490 Y44.939 E3.14460
G1 X47.128 Y44.821 E3.15774
G1 X47.771 Y44.732 E3.17089
G1 X48.417 Y44.670 E3.18403
G1 X49.064 Y44.637 E3.19718
G1 X130.713 Y44.632 E4.85164
G1 X131.361 Y44.656 E4.86478 F1800.000
G1 X132.203 Y44.729 E4.88190
G1 X132.872 Y44.821 E4.89559
G1 X133.510 Y44.939 E4.90873
G1 X134.142 Y45.084 E4.92188
G1 X135.174 Y45.385 E4.94365
G1 X135.785 Y45.602 E4.95679
G1 X136.386 Y45.846 E4.96994
G1 X136.976 Y46.115 E4.98309
G1 X137.554 Y46.411 E4.99623
G1 X138.118 Y46.731 E5.00938
G1 X138.853 Y47.199 E5.02703
G1 X139.382 Y47.575 E5.04017
G1 X139.893 Y47.974 E5.05332
G1 X140.388 Y48.395 E5.06648
G1 X141.164 Y49.138 E5.08825
G1 X141.605 Y49.613 E5.10139
G1 X142.026 Y50.107 E5.11454
G1 X142.557 Y50.798 E5.13219
G1 X142.925 Y51.332 E5.14534
G1 X143.270 Y51.883 E5.15851
G1 X143.786 Y52.824 E5.18027
G1 X144.065 Y53.410 E5.19340
G1 X144.317 Y54.007 E5.20655
G1 X144.544 Y54.615 E5.21970
G1 X144.798 Y55.421 E5.23682
G1 X144.969 Y56.073 E5.25048
G1 X145.105 Y56.710 E5.26367
G1 X145.213 Y57.348 E5.27678
G1 X145.293 Y57.993 E5.28995
G1 X145.344 Y58.639 E5.30308
G1 X145.370 Y59.500 E5.32054
G1 X145.370 Y120.500 E6.55659
G1 X145.344 Y121.361 E6.57406
G1 X145.292 Y122.008 E6.58719
G1 X145.213 Y122.652 E6.60035
G1 X145.105 Y123.291 E6.61348
G1 X144.969 Y123.927 E6.62665
G1 X144.806 Y124.552 E6.63974
G1 X144.544 Y125.385 E6.65744
G1 X144.317 Y125.993 E6.67058
G1 X144.065 Y126.590 E6.68374
G1 X143.786 Y127.176 E6.69687
G1 X143.482 Y127.750 E6.71003
G1 X143.153 Y128.310 E6.72320
G1 X142.801 Y128.853 E6.73630
G1 X142.425 Y129.382 E6.74945
G1 X142.026 Y129.893 E6.76260
G1 X141.605 Y130.388 E6.77578
G1 X141.164 Y130.862 E6.78889
G1 X140.701 Y131.318 E6.80204
G1 X140.220 Y131.752 E6.81517
G1 X139.382 Y132.425 E6.83696
G1 X138.853 Y132.801 E6.85011
G1 X138.309 Y133.154 E6.86325
G1 X137.750 Y133.482 E6.87639
G1 X137.176 Y133.786 E6.88955
G1 X136.590 Y134.065 E6.90268
G1 X135.993 Y134.317 E6.91584
G1 X135.385 Y134.544 E6.92898
G1 X134.768 Y134.743 E6.94212
G1 X134.143 Y134.916 E6.95526
G1 X133.510 Y135.061 E6.96842
G1 X132.872 Y135.179 E6.98156
G1 X132.229 Y135.268 E6.99472
G1 X131.583 Y135.330 E7.00785
G1 X130.936 Y135.363 E7.02099
G1 X49.500 Y135.370 E8.67114
G1 X48.639 Y135.344 E8.68860
G1 X47.992 Y135.292 E8.70174
G1 X47.348 Y135.213 E8.71490
G1 X46.709 Y135.105 E8.72803
G1 X46.073 Y134.969 E8.74120
G1 X45.446 Y134.806 E8.75433
G1 X44.826 Y134.615 E8.76747
G1 X44.215 Y134.398 E8.78062
G1 X43.433 Y134.075 E8.79776
G1 X42.824 Y133.786 E8.81142
G1 X42.250 Y133.482 E8.82458
G1 X41.690 Y133.153 E8.83774
G1 X41.147 Y132.801 E8.85086
G1 X40.618 Y132.425 E8.86401
G1 X40.107 Y132.026 E8.87715
G1 X39.612 Y131.605 E8.89031
G1 X39.137 Y131.163 E8.90345
G1 X38.682 Y130.701 E8.91660
G1 X38.248 Y130.220 E8.92973
G1 X37.834 Y129.720 E8.94288
G1 X37.443 Y129.202 E8.95603
G1 X37.075 Y128.668 E8.96918
G1 X36.731 Y128.118 E8.98232
G1 X36.410 Y127.554 E8.99547
G1 X35.935 Y126.590 E9.01724
G1 X35.683 Y125.993 E9.03038
G1 X35.456 Y125.385 E9.04353
G1 X35.256 Y124.767 E9.05667
G1 X35.037 Y123.952 E9.07379
G1 X34.895 Y123.292 E9.08747
G1 X34.787 Y122.652 E9.10061
G1 X34.708 Y122.008 E9.11377
G1 X34.656 Y121.361 E9.12691
G1 X34.630 Y120.500 E9.14437
G1 X34.632 Y59.287 E10.38474
G1 X34.670 Y58.417 E10.40240
G1 X34.732 Y57.770 E10.41555
G1 X34.821 Y57.128 E10.42870
G1 X35.031 Y56.074 E10.45047
G1 X35.249 Y55.258 E10.46759
G1 X35.456 Y54.615 E10.48127
G1 X35.846 Y53.614 E10.50304
G1 X36.115 Y53.023 E10.51619
G1 X36.518 Y52.251 E10.53384
G1 X36.846 Y51.691 E10.54699
G1 X37.199 Y51.147 E10.56013
G1 X37.834 Y50.280 E10.58191
G1 X38.248 Y49.780 E10.59506
G1 X38.836 Y49.138 E10.61271
G1 X39.299 Y48.682 E10.62586
G1 X40.061 Y48.012 E10.64642
G1 X40.464 Y48.493 F1800.000
G1 X41.169 Y47.950 E10.66446 F1800.000
G1 X41.681 Y47.598 E10.67705
G1 X42.208 Y47.268 E10.68963
G1 X42.748 Y46.961 E10.70223
G1 X43.301 Y46.679 E10.71482
G1 X43.867 Y46.421 E10.72741
G1 X44.443 Y46.187 E10.74000
G1 X45.028 Y45.980 E10.75259
G1 X45.597 Y45.805 E10.76465
G1 X46.613 Y45.555 E10.78584
G1 X47.224 Y45.442 E10.79843
G1 X47.839 Y45.356 E10.81102
G1 X48.458 Y45.297 E10.82361
G1 X49.078 Y45.265 E10.83620
G1 X130.699 Y45.261 E12.49011
G1 X131.320 Y45.283 E12.50270 F1800.000
G1 X132.135 Y45.353 E12.51926
G1 X132.776 Y45.442 E12.53239
G1 X133.387 Y45.555 E12.54498
G1 X133.993 Y45.694 E12.55757
G1 X134.972 Y45.980 E12.57824
G1 X135.557 Y46.187 E12.59082
G1 X136.133 Y46.421 E12.60342
G1 X136.699 Y46.679 E12.61600
G1 X137.252 Y46.962 E12.62860
G1 X137.792 Y47.268 E12.64119
G1 X138.504 Y47.721 E12.65828
G1 X139.010 Y48.082 E12.67087
G1 X139.500 Y48.464 E12.68346
G1 X139.973 Y48.867 E12.69606
G1 X140.710 Y49.572 E12.71672
G1 X141.133 Y50.027 E12.72931
G1 X141.536 Y50.500 E12.74190
G1 X142.050 Y51.169 E12.75900
G1 X142.402 Y51.681 E12.77159
G1 X142.733 Y52.209 E12.78421
G1 X143.223 Y53.102 E12.80485
G1 X143.489 Y53.663 E12.81743
G1 X143.732 Y54.235 E12.83003
G1 X143.949 Y54.817 E12.84261
G1 X144.195 Y55.597 E12.85918
G1 X144.359 Y56.223 E12.87229
G1 X144.489 Y56.832 E12.88492
G1 X144.592 Y57.443 E12.89748
G1 X144.668 Y58.061 E12.91009
G1 X144.717 Y58.680 E12.92266
G1 X144.742 Y59.500 E12.93929
G1 X144.742 Y120.500 E14.17535
G1 X144.717 Y121.320 E14.19198
G1 X144.668 Y121.939 E14.20456
G1 X144.592 Y122.557 E14.21716
G1 X144.489 Y123.168 E14.22973
G1 X144.359 Y123.777 E14.24235
G1 X144.203 Y124.376 E14.25489
G1 X143.949 Y125.183 E14.27203
G1 X143.732 Y125.765 E14.28461
G1 X143.489 Y126.337 E14.29721
G1 X143.223 Y126.898 E14.30979
G1 X142.931 Y127.447 E14.32240
G1 X142.616 Y127.984 E14.33501
G1 X142.279 Y128.504 E14.34756
G1 X141.918 Y129.010 E14.36015
G1 X141.536 Y129.500 E14.37274
G1 X141.132 Y129.974 E14.38536
G1 X140.710 Y130.428 E14.39792
G1 X140.267 Y130.864 E14.41052
G1 X139.806 Y131.280 E14.42310
G1 X139.010 Y131.918 E14.44377
G1 X138.504 Y132.279 E14.45637
G1 X137.983 Y132.617 E14.46895
G1 X137.448 Y132.931 E14.48153
G1 X136.898 Y133.223 E14.49414
G1 X136.337 Y133.489 E14.50672
G1 X135.765 Y133.732 E14.51932
G1 X135.183 Y133.949 E14.53190
G1 X134.592 Y134.140 E14.54449
G1 X133.993 Y134.306 E14.55707
G1 X133.387 Y134.445 E14.56968
G1 X132.777 Y134.558 E14.58226
G1 X132.161 Y134.644 E14.59486
G1 X131.542 Y134.703 E14.60744
G1 X130.922 Y134.735 E14.62003
G1 X49.078 Y134.735 E16.27845
G1 X48.457 Y134.703 E16.29104
G1 X47.839 Y134.644 E16.30362
G1 X47.223 Y134.558 E16.31624
G1 X46.613 Y134.445 E16.32880
G1 X46.007 Y134.306 E16.34141
G1 X45.407 Y134.140 E16.35401
G1 X44.817 Y133.949 E16.36658
G1 X44.235 Y133.732 E16.37917
G1 X43.662 Y133.489 E16.39177
G1 X43.102 Y133.223 E16.40434
G1 X42.553 Y132.931 E16.41695
G1 X42.016 Y132.616 E16.42955
G1 X41.169 Y132.050 E16.45020
G1 X40.673 Y131.676 E16.46278
G1 X40.194 Y131.280 E16.47538
G1 X39.733 Y130.864 E16.48796
G1 X39.290 Y130.428 E16.50056
G1 X38.867 Y129.973 E16.51314
G1 X38.464 Y129.500 E16.52574
G1 X38.082 Y129.010 E16.53833
G1 X37.721 Y128.504 E16.55092
G1 X37.281 Y127.814 E16.56749
G1 X36.961 Y127.252 E16.58061
G1 X36.679 Y126.698 E16.59320
G1 X36.421 Y126.133 E16.60578
G1 X36.187 Y125.557 E16.61838
G1 X35.860 Y124.592 E16.63904
G1 X35.694 Y123.993 E16.65163
G1 X35.555 Y123.387 E16.66422
G1 X35.408 Y122.556 E16.68132
G1 X35.332 Y121.940 E16.69391
G1 X35.283 Y121.320 E16.70650
G1 X35.258 Y120.500 E16.72313
G1 X35.258 Y59.500 E17.95918
G1 X35.283 Y58.680 E17.97581
G1 X35.356 Y57.839 E17.99292
G1 X35.442 Y57.223 E18.00551
G1 X35.641 Y56.223 E18.02617
G1 X35.852 Y55.434 E18.04273
G1 X36.051 Y54.817 E18.05586
G1 X36.421 Y53.867 E18.07652
G1 X36.679 Y53.301 E18.08912
G1 X37.069 Y52.553 E18.10621
G1 X37.383 Y52.017 E18.11880
G1 X37.721 Y51.496 E18.13139
G1 X38.324 Y50.673 E18.15206
G1 X38.720 Y50.194 E18.16465
G1 X39.290 Y49.572 E18.18175
G1 X39.733 Y49.136 E18.19434
G1 X40.418 Y48.532 E18.21286
G1 X40.822 Y49.013 F1800.000
G1 X41.541 Y48.457 E18.23127 F1800.000
G1 X42.030 Y48.120 E18.24331
G1 X42.533 Y47.805 E18.25534
G1 X43.050 Y47.512 E18.26738
G1 X43.579 Y47.242 E18.27941
G1 X44.120 Y46.996 E18.29145
G1 X44.670 Y46.773 E18.30348
G1 X45.773 Y46.408 E18.32701
G1 X46.735 Y46.171 E18.34710
G1 X47.319 Y46.063 E18.35913
G1 X47.908 Y45.981 E18.37117
G1 X48.499 Y45.924 E18.38320
G1 X49.092 Y45.894 E18.39524
G1 X130.686 Y45.889 E20.04859
G1 X131.279 Y45.910 E20.06062 F1800.000
G1 X132.066 Y45.978 E20.07663
G1 X132.681 Y46.063 E20.08920
G1 X133.265 Y46.171 E20.10124
G1 X133.844 Y46.305 E20.11327
G1 X134.770 Y46.575 E20.13283
G1 X135.330 Y46.773 E20.14486
G1 X135.880 Y46.996 E20.15689
G1 X136.421 Y47.242 E20.16893
G1 X136.950 Y47.512 E20.18096
G1 X137.467 Y47.805 E20.19300
G1 X138.155 Y48.244 E20.20954
G1 X138.639 Y48.588 E20.22157
G1 X139.107 Y48.954 E20.23361
G1 X139.559 Y49.340 E20.24565
G1 X140.256 Y50.007 E20.26520
G1 X140.661 Y50.441 E20.27723
G1 X141.169 Y51.047 E20.29326
G1 X141.543 Y51.541 E20.30581
G1 X141.880 Y52.030 E20.31785
G1 X142.196 Y52.535 E20.32991
G1 X142.659 Y53.380 E20.34944
G1 X142.914 Y53.916 E20.36147
G1 X143.146 Y54.463 E20.37351
G1 X143.354 Y55.019 E20.38554
G1 X143.592 Y55.772 E20.40155
G1 X143.748 Y56.372 E20.41411
G1 X143.872 Y56.955 E20.42618
G1 X143.971 Y57.539 E20.43818
G1 X144.043 Y58.130 E20.45024
G1 X144.090 Y58.721 E20.46226
G1 X144.113 Y59.500 E20.47805
G1 X144.113 Y120.500 E21.71411
G1 X144.090 Y121.279 E21.72990
G1 X144.043 Y121.871 E21.74193
G1 X143.971 Y122.461 E21.75398
G1 X143.872 Y123.046 E21.76599
G1 X143.748 Y123.628 E21.77805
G1 X143.600 Y124.200 E21.79004
G1 X143.354 Y124.981 E21.80662
G1 X143.146 Y125.537 E21.81865
G1 X142.914 Y126.084 E21.83069
G1 X142.659 Y126.620 E21.84272
G1 X142.380 Y127.145 E21.85477
G1 X142.079 Y127.658 E21.86682
G1 X141.756 Y128.155 E21.87882
G1 X141.412 Y128.639 E21.89086
G1 X141.046 Y129.107 E21.90289
G1 X140.660 Y129.560 E21.91495
G1 X140.256 Y129.993 E21.92696
G1 X139.832 Y130.410 E21.93900
G1 X139.392 Y130.807 E21.95103
G1 X138.639 Y131.412 E21.97059
G1 X138.155 Y131.756 E21.98263
G1 X137.657 Y132.079 E21.99466
G1 X137.145 Y132.380 E22.00668
G1 X136.620 Y132.659 E22.01873
G1 X136.084 Y132.914 E22.03076
G1 X135.537 Y133.146 E22.04280
G1 X134.981 Y133.354 E22.05483
G1 X134.416 Y133.537 E22.06686
G1 X133.844 Y133.695 E22.07889
G1 X133.264 Y133.829 E22.09094
G1 X132.681 Y133.937 E22.10297
G1 X132.092 Y134.019 E22.11501
G1 X131.501 Y134.076 E22.12704
G1 X130.908 Y134.106 E22.13907
G1 X49.092 Y134.106 E23.79693
G1 X48.498 Y134.076 E23.80897
G1 X47.908 Y134.019 E23.82100
G1 X47.319 Y133.937 E23.83305
G1 X46.736 Y133.829 E23.84506
G1 X46.156 Y133.695 E23.85712
G1 X45.583 Y133.537 E23.86916
G1 X45.019 Y133.354 E23.88118
G1 X44.463 Y133.146 E23.89321
G1 X43.916 Y132.914 E23.90525
G1 X43.380 Y132.659 E23.91727
G1 X42.855 Y132.380 E23.92932
G1 X42.342 Y132.079 E23.94137
G1 X41.541 Y131.543 E23.96091
G1 X41.067 Y131.186 E23.97294
G1 X40.608 Y130.807 E23.98498
G1 X40.168 Y130.410 E23.99701
G1 X39.744 Y129.993 E24.00904
G1 X39.339 Y129.559 E24.02107
G1 X38.954 Y129.107 E24.03311
G1 X38.588 Y128.639 E24.04515
G1 X38.244 Y128.155 E24.05718
G1 X37.819 Y127.488 E24.07320
G1 X37.512 Y126.949 E24.08577
G1 X37.242 Y126.420 E24.09780
G1 X36.996 Y125.880 E24.10983
G1 X36.773 Y125.329 E24.12187
G1 X36.463 Y124.416 E24.14142
G1 X36.304 Y123.844 E24.15345
G1 X36.171 Y123.265 E24.16549
G1 X36.029 Y122.461 E24.18203
G1 X35.957 Y121.871 E24.19407
G1 X35.910 Y121.279 E24.20610
G1 X35.887 Y120.500 E24.22190
G1 X35.887 Y59.500 E25.45795
G1 X35.910 Y58.721 E25.47375
G1 X35.981 Y57.907 E25.49029
G1 X36.063 Y57.319 E25.50233
G1 X36.252 Y56.373 E25.52188
G1 X36.456 Y55.609 E25.53789
G1 X36.646 Y55.019 E25.55046
G1 X36.996 Y54.120 E25.57001
G1 X37.243 Y53.579 E25.58205
G1 X37.619 Y52.855 E25.59859
G1 X37.921 Y52.343 E25.61063
G1 X38.244 Y51.845 E25.62266
G1 X38.814 Y51.067 E25.64222
G1 X39.193 Y50.609 E25.65425
G1 X39.744 Y50.007 E25.67080
G1 X40.168 Y49.590 E25.68283
G1 X40.776 Y49.052 E25.69930
G1 X41.180 Y49.533 F1800.000
G1 X41.912 Y48.963 E25.71810 F1800.000
G1 X42.859 Y48.342 E25.74105
G1 X43.857 Y47.806 E25.76400
G1 X44.898 Y47.359 E25.78696
G1 X45.948 Y47.011 E25.80938
G1 X46.858 Y46.787 E25.82835
G1 X47.976 Y46.606 E25.85131
G1 X49.106 Y46.522 E25.87426
G1 X130.672 Y46.517 E27.52705
G1 X131.238 Y46.537 E27.53853 F1800.000
G1 X131.998 Y46.603 E27.55399
G1 X132.585 Y46.684 E27.56600
G1 X133.142 Y46.787 E27.57748
G1 X133.694 Y46.915 E27.58896
G1 X134.568 Y47.170 E27.60740
G1 X135.627 Y47.571 E27.63036
G1 X136.648 Y48.063 E27.65331
G1 X137.141 Y48.342 E27.66479
G1 X137.806 Y48.766 E27.68077
G1 X138.714 Y49.444 E27.70372
G1 X139.145 Y49.812 E27.71522
G1 X139.802 Y50.441 E27.73366
G1 X140.556 Y51.286 E27.75661
G1 X141.036 Y51.912 E27.77259
G1 X141.357 Y52.379 E27.78407
G1 X141.658 Y52.861 E27.79558
G1 X142.096 Y53.658 E27.81400
G1 X142.561 Y54.690 E27.83695
G1 X142.759 Y55.221 E27.84843
G1 X142.989 Y55.948 E27.86388
G1 X143.138 Y56.522 E27.87588
G1 X143.256 Y57.077 E27.88740
G1 X143.419 Y58.198 E27.91034
G1 X143.463 Y58.762 E27.92181
G1 X143.485 Y59.500 E27.93677
G1 X143.485 Y120.500 E29.17282
G1 X143.449 Y121.460 E29.19230
G1 X143.316 Y122.585 E29.21525
G1 X143.085 Y123.695 E29.23821
G1 X142.759 Y124.779 E29.26115
G1 X142.339 Y125.831 E29.28411
G1 X141.829 Y126.843 E29.30707
G1 X141.234 Y127.806 E29.33000
G1 X140.556 Y128.714 E29.35296
G1 X139.802 Y129.559 E29.37591
G1 X138.977 Y130.335 E29.39886
G1 X138.267 Y130.905 E29.41731
G1 X137.331 Y131.542 E29.44027
G1 X136.342 Y132.096 E29.46322
G1 X135.309 Y132.561 E29.48617
G1 X134.240 Y132.934 E29.50912
G1 X133.142 Y133.213 E29.53208
G1 X132.024 Y133.394 E29.55504
G1 X130.895 Y133.478 E29.57798
G1 X49.105 Y133.478 E31.23529
G1 X47.976 Y133.395 E31.25823
G1 X46.858 Y133.213 E31.28118
G1 X45.759 Y132.934 E31.30416
G1 X44.690 Y132.561 E31.32710
G1 X43.658 Y132.096 E31.35004
G1 X42.668 Y131.542 E31.37302
G1 X41.912 Y131.036 E31.39145
G1 X41.460 Y130.696 E31.40293
G1 X40.602 Y129.956 E31.42588
G1 X39.812 Y129.145 E31.44883
G1 X39.095 Y128.267 E31.47179
G1 X38.766 Y127.806 E31.48327
G1 X38.356 Y127.163 E31.49873
G1 X38.063 Y126.647 E31.51074
G1 X37.806 Y126.143 E31.52222
G1 X37.359 Y125.102 E31.54517
G1 X37.066 Y124.240 E31.56361
G1 X36.915 Y123.694 E31.57509
G1 X36.787 Y123.142 E31.58657
G1 X36.650 Y122.365 E31.60255
G1 X36.537 Y121.238 E31.62551
G1 X36.515 Y120.500 E31.64047
G1 X36.515 Y59.500 E32.87652
G1 X36.537 Y58.762 E32.89149
G1 X36.581 Y58.197 E32.90296
G1 X36.650 Y57.635 E32.91445
G1 X36.787 Y56.858 E32.93044
G1 X37.004 Y55.974 E32.94888
G1 X37.170 Y55.432 E32.96036
G1 X37.359 Y54.898 E32.97184
G1 X37.661 Y54.169 E32.98782
G1 X37.904 Y53.658 E32.99930
G1 X38.342 Y52.859 E33.01775
G1 X38.752 Y52.216 E33.03321
G1 X39.095 Y51.733 E33.04522
G1 X39.665 Y51.023 E33.06366
G1 X40.044 Y50.602 E33.07514
G1 X40.602 Y50.044 E33.09113
G1 X41.134 Y49.572 E33.10555
G1 X41.538 Y50.053 F1800.000
G1 X42.284 Y49.470 E33.12473 F1800.000
G1 X43.185 Y48.880 E33.14657
G1 X44.135 Y48.370 E33.16841
G1 X45.126 Y47.944 E33.19026
G1 X46.124 Y47.614 E33.21157
G1 X46.981 Y47.404 E33.22943
G1 X48.044 Y47.230 E33.25128
G1 X49.119 Y47.150 E33.27312
G1 X130.658 Y47.145 E34.92536
G1 X131.197 Y47.164 E34.93628 F1800.000
G1 X131.930 Y47.227 E34.95118
G1 X133.020 Y47.404 E34.97355
G1 X133.545 Y47.525 E34.98448
G1 X134.366 Y47.765 E35.00181
G1 X135.374 Y48.146 E35.02365
G1 X136.345 Y48.614 E35.04550
